X:2513
T:Cantar d'Ánimes (CT 173)
R:Ánimes
C:Tradicional
S:Música Tradicional Asturiana, (C) Tello & Tito. Asturies, 2001.
S:http://pagina.de/MusTradAst <telloytito@asturies.org>
N:Canción de Ánimas, transcrita en Llamo, ayuntamiento de Riosa.
N:En la noche víspera de la festividad de Todos Los Santos es costumbre en Riosa que varias mujeres postulen de puerta en puerta, a fin de invertir lo recaudado en misas en sufragio de Las Ánimas del Purgatorio.
N:Pueden ser las postulantes en número de seis, ocho o más.
N:Van cubiertas con negros mantos desde la cabeza a los pies y delante del coro marchan dos mujeres llevando un farol encendido y una campanilla, respectivamente, con la cual se da un golpe al final de cada miembro de la frase, correspondiente a un verso de la cuarteta.
N:La tristeza que en sí encierra la frase melódica y todas las circunstancias que concurren en este acto, hacen que el ánimo de las gentes, al escuchar este canto en el silencio de la noche, se sobrecoja de temor.
O:Llamo (Riosa)
A:Asturies
Z:Cancioneru de Torner 173
M:3/4
L:1/8
Q:1/4=68
W:Ánimas del Purgatorio
W:son las que están a tu puerta;
W:si nos dais una limosna
W:tendréis la gloria mui cierta.
W:
W:¡Ai, ai, ai! que aquí me abraso,
W:¡ai, ai, ai! que aquí me quemo;
W:ten piedad de nuestras almas,
W:que están pasando tormentos.
K:Gm
|GB B>A GB|c2 B4|Bc c>B cd|d2 c4|GB B>A GB|c2 B4|AG ^F>G AB|(A3/2B/4A/4) G4 :||


